X:1
T:Symphony No. 6 'Pathétique' (theme)
C:Pyotr Ilyich Tchaikovsky
M:4/4
L:1/4
Q:1/4=72
K:D
F G A B | c A d2 | c B A G | F A B c | d c B A | G A B c | d2 A2 | F4 |]
